TrafficJam2023/images/icons/telegram.svg

<svg width="20" height="20" viewBox="0 0 20 20" fill="none" xmlns="http://www.w3.org/2000/svg">
<path fill-rule="evenodd" clip-rule="evenodd" d="M19.7107 4.02269L16.9482 16.724L16.9479 16.7255C16.8321 17.2658 16.5693 17.7809 16.0432 18.0119C15.5252 18.2394 14.9734 18.0925 14.5134 17.8454C14.4893 17.8324 14.466 17.8179 14.4438 17.8019L10.6513 15.069L9.00173 16.6339L9.00003 16.6355C8.99129 16.6438 8.9821 16.6525 8.97246 16.6616C8.87099 16.7578 8.71988 16.9011 8.53371 17.0095C8.30485 17.1428 8.04363 17.2165 7.72799 17.2165C7.5548 17.2165 7.38938 17.1447 7.27118 17.0181C7.15298 16.8915 7.09261 16.7216 7.10446 16.5488L7.38874 12.4046C7.38824 12.3559 7.39344 12.3065 7.40478 12.2574C7.43812 12.113 7.51998 11.99 7.63074 11.9041L11.7977 8.23526L5.9819 11.8151C5.8293 11.909 5.64374 11.9329 5.47232 11.8807L1.30565 10.6127L1.3041 10.6122C1.02854 10.5296 0.76212 10.4052 0.55791 10.2168C0.342673 10.0182 0.174856 9.72143 0.212274 9.35859C0.247076 9.02113 0.446868 8.7627 0.654272 8.58378C0.866617 8.4006 1.14322 8.24979 1.46019 8.12559L1.46813 8.12248L17.6933 2.01865C18.2318 1.78763 18.8715 1.81581 19.3279 2.24627C19.7841 2.67638 19.882 3.34117 19.7107 4.02269ZM8.62161 12.6972L8.43272 15.4507L10.1666 13.8059C10.3845 13.5992 10.7185 13.5767 10.9621 13.7522L15.1389 16.762C15.43 16.9111 15.5373 16.8689 15.5406 16.8674C15.5441 16.8659 15.5673 16.8558 15.6022 16.8022C15.6407 16.7429 15.6885 16.6372 15.7258 16.4627L15.7263 16.4605L18.4916 3.74667C18.4931 3.73932 18.4949 3.732 18.4967 3.72471C18.6045 3.30314 18.4843 3.16882 18.4704 3.15571C18.4592 3.14519 18.3793 3.08211 18.1804 3.1699C18.1697 3.17459 18.159 3.17899 18.1481 3.18309L1.91242 9.29092C1.80605 9.33277 1.71973 9.37348 1.65064 9.41108C1.65506 9.41244 1.65954 9.4138 1.6641 9.41517L1.66684 9.41599L5.56665 10.6028L14.982 4.80745C15.1516 4.7068 15.3287 4.638 15.5007 4.60323C15.6608 4.57086 15.8649 4.55857 16.0643 4.62533C16.1671 4.65978 16.299 4.72597 16.4082 4.85287C16.5265 4.99041 16.5888 5.1667 16.5817 5.35062C16.5695 5.66883 16.3624 5.88308 16.2428 5.98707L16.2406 5.989L8.62161 12.6972Z" fill="#FCFDFD"/>
</svg>

<svg xmlns="http://www.w3.org/2000/svg" width="20" height="20" fill="none" viewBox="0 0 20 20"><path fill="#FCFDFD" fill-rule="evenodd" d="m19.71 4.023-2.762 12.701v.002c-.116.54-.379 1.055-.905 1.286-.518.227-1.07.08-1.53-.167a.633.633 0 0 1-.07-.043l-3.792-2.733-1.65 1.565-.001.002-.028.026c-.101.096-.252.24-.438.348-.23.133-.49.206-.806.206a.625.625 0 0 1-.624-.667l.285-4.144a.625.625 0 0 1 .242-.5l4.167-3.67-5.816 3.58a.625.625 0 0 1-.51.066l-4.166-1.268h-.002c-.275-.083-.542-.208-.746-.396-.215-.199-.383-.496-.346-.858.035-.338.235-.596.442-.775.213-.183.49-.334.806-.458l.008-.004L17.693 2.02c.539-.231 1.178-.203 1.635.227.456.43.554 1.095.383 1.777ZM8.623 12.697l-.19 2.754 1.735-1.645a.625.625 0 0 1 .795-.054l4.177 3.01c.291.15.398.107.402.105.003-.001.026-.011.061-.065.039-.06.086-.165.124-.34v-.002l2.766-12.713a.554.554 0 0 1 .005-.022c.108-.422-.013-.556-.027-.57-.01-.01-.09-.073-.29.015a.653.653 0 0 1-.032.013L1.912 9.291a2.348 2.348 0 0 0-.261.12l.013.004.003.001 3.9 1.187 9.415-5.796c.17-.1.347-.169.519-.204.16-.032.364-.044.563.022a.78.78 0 0 1 .344.228c.118.137.18.314.174.498-.012.318-.22.532-.34.636l-.001.002-7.62 6.708Z" clip-rule="evenodd"/></svg>
